X:113
T:Out on the Ocean
Z: id:dc-jig-94
M:6/8
L:1/8
K:A Major
AGF|E2c cBA|cec B2c|AFE A2B|cBc BAF|!
E2c cBA|cec B2c|AFE A2B|cAG:|!
Ace|faf fec|faf fec|efe ecB|efe ecB|!
A2B c2e|faf ecB|AFE A2B|cAG Ace|!
faf fec|faf fec|efe efg|agf ecB|!
A2B c2e|faf ecB|AFE A2B|cAG|]!

